packages/bezier-icons/icons/volume-bluetooth-filled.svg

<svg width="24" height="24" viewBox="0 0 24 24" fill="none" xmlns="http://www.w3.org/2000/svg">
<path fill-rule="evenodd" clip-rule="evenodd" d="M12.8286 2.00818L12.9601 1.99951H13.9601C14.5124 1.99951 14.9601 2.44723 14.9601 2.99951V20.9995C14.9601 21.5518 14.5124 21.9995 13.9601 21.9995H12.9601C12.6949 21.9995 12.4405 21.8942 12.253 21.7066L7.54498 16.9989L2.96008 16.9995C2.44725 16.9995 2.02458 16.6135 1.96681 16.1161L1.96008 15.9995V7.99951C1.96008 7.44723 2.4078 6.99951 2.96008 6.99951L7.54498 6.99891L12.253 2.2924C12.4093 2.13612 12.6119 2.03691 12.8286 2.00818ZM20.1271 6.40799C19.901 6.23213 19.5945 6.20042 19.3372 6.32627C19.0798 6.45212 18.9167 6.71356 18.9167 7.00001V10.4773L17.444 9.39556C17.1102 9.15034 16.6408 9.22217 16.3956 9.556C16.1503 9.88982 16.2222 10.3592 16.556 10.6045L18.4558 12L16.556 13.3956C16.2222 13.6408 16.1503 14.1102 16.3956 14.444C16.6408 14.7778 17.1102 14.8497 17.444 14.6045L18.9167 13.5227V17C18.9167 17.2865 19.0798 17.5479 19.3372 17.6737C19.5945 17.7996 19.901 17.7679 20.1271 17.592L23.4605 14.9994C23.646 14.8551 23.7532 14.6321 23.7499 14.3971C23.7467 14.1621 23.6335 13.9421 23.444 13.803L20.9896 12L23.444 10.197C23.6335 10.0579 23.7467 9.83795 23.7499 9.60291C23.7532 9.36786 23.646 9.1449 23.4605 9.00058L20.1271 6.40799ZM21.7564 14.4245L20.4167 13.4404V15.4665L21.7564 14.4245ZM20.4167 8.53349V10.5596L21.7564 9.5755L20.4167 8.53349Z" fill="#313234"/>
</svg>

<svg xmlns="http://www.w3.org/2000/svg" width="24" height="24" fill="none" viewBox="0 0 24 24"><path fill="#313234" fill-rule="evenodd" d="M12.829 2.008 12.96 2h1a1 1 0 0 1 1 1v18a1 1 0 0 1-1 1h-1a1 1 0 0 1-.707-.293l-4.708-4.708H2.96a1 1 0 0 1-.993-.883L1.96 16V8a1 1 0 0 1 1-1h4.585l4.708-4.707a1 1 0 0 1 .576-.284m7.298 4.4a.75.75 0 0 0-1.21.592v3.477l-1.473-1.081a.75.75 0 1 0-.888 1.208l1.9 1.396-1.9 1.396a.75.75 0 1 0 .888 1.208l1.473-1.081V17a.75.75 0 0 0 1.21.592l3.334-2.593a.75.75 0 0 0-.017-1.196L20.99 12l2.454-1.803a.75.75 0 0 0 .017-1.196zm1.63 8.017-1.34-.985v2.027zm-1.34-5.892v2.027l1.34-.985z" clip-rule="evenodd"/></svg>
